X: 27
T: Black Face-paint He Grants Me
C: Teton Sioux band 1911-1914
N: Derived from sioux027.krn
O: South Dakota, U.S.A.
N: Teton Sioux Music by Frances Densmore, 1918
Z: transcribed to **kern format by Craig Sapp
L: 1/8
M: 2/4
Q: 1/4=58
K: D clef=bass
%%linebreak <none>
F F/ F3/ [I:setbarnb 1]| 
(3F F ED2 | 
B,< DD2 | 
(3D F ED2 | 
B,< DD2 | 
B,< D B,/ A,3/ | 
F,< A,A,2 | 
D< B,A,2 | 
F,< A,F,2- | 
F, F, G, F, | 
D,< D, D, D, | 
D,4 ||  
[M:3/4]A,< D D< D D/ F3/ ||  
[M:2/4](3(F E) E D D | 
B,< D D D | 
B,< D B, A, | 
F,< A,A,2 | 
D< B,A,2 | 
F,< A,F,2- | 
F, F, G, F, | 
D,< D, D, D, | 
D,4 |]  



